dist/images/nav-exit.svg

<svg width="24" height="24" viewBox="0 0 24 24" fill="none" xmlns="http://www.w3.org/2000/svg">
<g clip-path="url(#clip0_2828_16)">
<path d="M8.56406 3.83906L1.25156 0C0.613172 0.239016 0 1.02234 0 1.92656V18.3187C0 19.0359 0.351563 19.6828 0.942141 20.0765L6.56714 23.6453C7.91203 24.5596 9.84375 23.6116 9.84375 21.8874V5.79375C9.84375 4.96402 9.37964 4.24683 8.56406 3.83906ZM7.03125 13.4062C7.03125 13.7949 6.71677 14.1094 6.32812 14.1094C5.93948 14.1094 5.625 13.7949 5.625 13.4062V10.5938C5.625 10.2051 5.93948 9.89062 6.32812 9.89062C6.71677 9.89062 7.03125 10.2051 7.03125 10.5938V13.4062ZM23.7219 11.4398L18.7785 7.98862C18.3355 7.54566 17.5781 7.85934 17.5781 8.48573V10.5938H11.9531C11.5648 10.5938 11.25 10.9085 11.25 11.2969V12.7031C11.25 13.0914 11.5648 13.4062 11.9531 13.4062H17.5781V15.5142C17.5781 16.1406 18.3354 16.4543 18.7784 16.0114L23.7219 12.56C24.0926 12.2787 24.0926 11.7212 23.7219 11.4398Z" fill="#D5DFF2"/>
<path d="M10.8536 14.6814V21H12.9268C14.07 21 15 20.0622 15 18.9093V14.6814H10.8536ZM12.9268 0H4L8.82917 2.55689L8.83179 2.55824C8.83198 2.55833 8.83202 2.55847 8.83202 2.55847L8.85607 2.57115C10.0978 3.19665 10.8536 4.38696 10.8536 5.74266V9.10619H15V2.09071C15 0.937845 14.07 0 12.9268 0Z" fill="#D5DFF2"/>
</g>
<defs>
<clipPath id="clip0_2828_16">
<rect width="24" height="24" fill="white"/>
</clipPath>
</defs>
</svg>

<svg width="24" height="24" fill="none" xmlns="http://www.w3.org/2000/svg"><g clip-path="url(#clip0_2828_16)" fill="#D5DFF2"><path d="M8.564 3.84L1.252 0C.613.239 0 1.022 0 1.927v16.392c0 .717.352 1.364.942 1.758l5.625 3.568c1.345.915 3.277-.033 3.277-1.758V5.794c0-.83-.464-1.547-1.28-1.955zm-1.533 9.566a.703.703 0 11-1.406 0v-2.812a.703.703 0 111.406 0v2.812zm16.69-1.966L18.78 7.989a.703.703 0 00-1.2.497v2.108h-5.626a.703.703 0 00-.703.703v1.406c0 .388.315.703.703.703h5.625v2.108c0 .627.757.94 1.2.497l4.944-3.451a.703.703 0 000-1.12z"/><path d="M10.854 14.681V21h2.073A2.084 2.084 0 0015 18.91v-4.23h-4.146zM12.927 0H4l4.83 2.557.002.001.024.013c1.242.626 1.998 1.816 1.998 3.172v3.363H15V2.091C15 .938 14.07 0 12.927 0z"/></g><defs><clipPath id="clip0_2828_16"><path fill="#fff" d="M0 0h24v24H0z"/></clipPath></defs></svg>
